Tizora/dist/assets/img/contacts/contacts-main-location-img.svg

<svg width="117" height="117" viewBox="0 0 117 117" fill="none" xmlns="http://www.w3.org/2000/svg">
<path d="M58.9998 62.698C56.3415 62.698 54.1665 60.5334 54.1665 57.8878C54.1665 55.2422 56.3415 53.0777 58.9998 53.0777C61.6582 53.0777 63.8332 55.2422 63.8332 57.8878C63.8332 60.5334 61.6582 62.698 58.9998 62.698ZM58.9998 38.6472C48.8498 38.6472 39.6665 46.3916 39.6665 58.3688C39.6665 66.3537 46.119 75.8056 58.9998 86.7487C71.8807 75.8056 78.3332 66.3537 78.3332 58.3688C78.3332 46.3916 69.1498 38.6472 58.9998 38.6472Z" fill="white"/>
<path d="M91.5 61.205C91.5 79.3394 76.7277 94.0443 58.5 94.0443C40.2723 94.0443 25.5 79.3394 25.5 61.205C25.5 43.0706 40.2723 28.3657 58.5 28.3657C76.7277 28.3657 91.5 43.0706 91.5 61.205Z" stroke="white"/>
<path d="M116.5 58.2194C116.5 90.0946 90.5348 115.939 58.5 115.939C26.4652 115.939 0.5 90.0946 0.5 58.2194C0.5 26.3441 26.4652 0.5 58.5 0.5C90.5348 0.5 116.5 26.3441 116.5 58.2194Z" stroke="white"/>
</svg>

<svg width="117" height="117" fill="none" xmlns="http://www.w3.org/2000/svg"><path d="M59 62.698c-2.658 0-4.834-2.165-4.834-4.81 0-2.646 2.176-4.81 4.834-4.81 2.658 0 4.833 2.164 4.833 4.81 0 2.645-2.175 4.81-4.833 4.81zm0-24.05c-10.15 0-19.334 7.744-19.334 19.72 0 7.986 6.453 17.438 19.334 28.38 12.88-10.942 19.333-20.394 19.333-28.38 0-11.976-9.183-19.72-19.333-19.72z" fill="#fff"/><path d="M91.5 61.205c0 18.134-14.772 32.84-33 32.84s-33-14.706-33-32.84c0-18.134 14.772-32.84 33-32.84s33 14.706 33 32.84z" stroke="#fff"/><path d="M116.5 58.22c0 31.875-25.965 57.719-58 57.719S.5 90.095.5 58.219C.5 26.344 26.465.5 58.5.5s58 25.844 58 57.72z" stroke="#fff"/></svg>
